X:12
T:Tolka Polka, The
R:polka
M:2/4
L:1/8
Q:1/4=134
K:Ador
|:A>B cg|de cA|B/c/B/A/ Gd|AB GE|
A>B cg|de cA|B/c/B/A/ Gd|BA A2:|
|:d>e fa|ga fd|g/e/d/c/ Bd/c/|B/A/G d/c/B/c/|
A>B cg|de cA|B/c/B/A/ Gd|BA A2:|
|:e>f gf|d e> fg |fd g>e| dc B(d|
d/2) c/2 B cg|de cA|B/2 c/2   B/2A/2 Gd|BA A2:|
